X: 1
T: Johnny When You Die
M: 4/4
L: 1/8
R: reel
K: Emin
e2 dB eBdB|A2 GA Bd d2|e2 dB eBdB|A2 GA BGBd|
e2 dB eBdB|A2 GA BAAB|GB B2 GBdB|A2 GA BG G2|
g2 fg egde|g2 fg eaaf|g2 fg egdB|A2 AG BGBd|
g2 fg egde|gbag eaaf|gbag egdB|A2 GA BG G2:|
